tetrification/src/assets/images/pageNotFound/piece_blue.svg

<svg xmlns="http://www.w3.org/2000/svg" width="375" height="250" fill="none"><path fill="#83BBD3" stroke="#3F7389" stroke-width="2" d="m116.438 125.62 7.645 7.696v107.691l-7.645 7.696H8.645L1 241.007V133.316l7.645-7.696h107.793ZM241.206 125.769l7.645 7.695v107.691l-7.645 7.696H133.414l-7.645-7.696V133.464l7.645-7.695h107.792ZM365.975 1l7.645 7.696v107.691l-7.645 7.696H258.182l-7.645-7.696V8.696L258.182 1h107.793ZM241.206 1l7.645 7.696v107.691l-7.645 7.696H133.414l-7.645-7.696V8.696L133.414 1h107.792Z"/></svg>

<svg width="375" height="250" viewBox="0 0 375 250" fill="none" xmlns="http://www.w3.org/2000/svg">
<path d="M116.438 125.62L124.083 133.316V241.007L116.438 248.703H8.64528L1 241.007V133.316L8.64528 125.62H116.438Z" fill="#83BBD3" stroke="#3F7389" stroke-width="2"/>
<path d="M241.206 125.769L248.851 133.464V241.155L241.206 248.851H133.414L125.769 241.155V133.464L133.414 125.769H241.206Z" fill="#83BBD3" stroke="#3F7389" stroke-width="2"/>
<path d="M365.975 1L373.62 8.69591V116.387L365.975 124.083H258.182L250.537 116.387V8.69591L258.182 1H365.975Z" fill="#83BBD3" stroke="#3F7389" stroke-width="2"/>
<path d="M241.206 1L248.851 8.69591V116.387L241.206 124.083H133.414L125.769 116.387V8.69591L133.414 1H241.206Z" fill="#83BBD3" stroke="#3F7389" stroke-width="2"/>
</svg>
